src/travel-places/transport-water/2693.svg

<svg id="emoji" viewBox="0 0 72 72" xmlns="http://www.w3.org/2000/svg">
  <g id="grid">
    <path fill="#b3b3b3" d="M68,4V68H4V4H68m4-4H0V72H72V0Z"/>
    <path fill="none" stroke="#00a5ff" stroke-miterlimit="10" stroke-width="0.1" d="M12.923,10.9583H59.0769A1.9231,1.9231,0,0,1,61,12.8814V59.0352a1.9231,1.9231,0,0,1-1.9231,1.9231H12.9231A1.9231,1.9231,0,0,1,11,59.0352V12.8813A1.923,1.923,0,0,1,12.923,10.9583Z"/>
    <rect x="16" y="4" rx="2.2537" width="40" height="64" fill="none" stroke="#00a5ff" stroke-miterlimit="10" stroke-width="0.1"/>
    <rect x="16" y="4" rx="2.2537" width="40" height="64" transform="translate(72) rotate(90)" fill="none" stroke="#00a5ff" stroke-miterlimit="10" stroke-width="0.1"/>
    <circle cx="36" cy="36" r="29" fill="none" stroke="#00a5ff" stroke-miterlimit="10" stroke-width="0.1"/>
  </g>
  <g id="color">
    <path fill="#d0cfce" stroke="none" stroke-linecap="round" stroke-linejoin="round" stroke-miterlimit="10" stroke-width="2" d="M54.215,34.1095l-5.2701,9.12h3.1702c-2.4101,5.55-7.6001,9.37-13.5801,10.07v-23.88h4c1.2053,0,2.1704-1.0684,1.9747-2.3241 c-0.154-0.9877-1.0771-1.6759-2.0766-1.6759H38.535v-2.41c2.0104-0.891,3.3423-3.0605,2.9227-5.4805 c-0.3413-1.9684-1.8948-3.5908-3.8506-3.9978c-3.2277-0.6717-6.0721,1.7782-6.0721,4.8883c0,2.05,1.24,3.81,3,4.59v2.41h-3.898 c-0.9996,0-1.9227,0.6882-2.0766,1.6759c-0.1958,1.2557,0.7694,2.3241,1.9746,2.3241h4v23.88 c-5.9299-0.71-11.1699-4.56-13.58-10.07h3.1001l-5.2701-9.12l-5.27,9.12h3.28c0,0.24,0.0541,0.4652,0.13,0.71 c2.6723,8.6078,16.5632,15.1685,19.0988,16.3038c0.2569,0.1151,0.5388,0.1164,0.7966,0.0034 c2.5781-1.1294,16.8623-7.7541,19.5846-17.0172h3.08L54.215,34.1095z M36.535,17.4195c0.5501,0,1,0.45,1,1c0,0.55-0.4499,1-1,1 c-0.55,0-1-0.45-1-1C35.535,17.8695,35.985,17.4195,36.535,17.4195z"/>
  </g>
  <g id="hair"/>
  <g id="skin"/>
  <g id="skin-shadow"/>
  <g id="line">
    <path fill="none" stroke="#000000" stroke-linecap="round" stroke-linejoin="round" stroke-miterlimit="10" stroke-width="2" d="M54.215,34.1095l-5.2701,9.12h3.1702c-2.4101,5.55-7.6001,9.37-13.5801,10.07v-23.88h4c1.2053,0,2.1704-1.0684,1.9747-2.3241 c-0.154-0.9877-1.0771-1.6759-2.0766-1.6759H38.535v-2.41c2.0104-0.891,3.3423-3.0605,2.9227-5.4805 c-0.3413-1.9684-1.8948-3.5908-3.8506-3.9978c-3.2277-0.6717-6.0721,1.7782-6.0721,4.8883c0,2.05,1.24,3.81,3,4.59v2.41h-3.898 c-0.9996,0-1.9227,0.6882-2.0766,1.6759c-0.1958,1.2557,0.7694,2.3241,1.9746,2.3241h4v23.88 c-5.9299-0.71-11.1699-4.56-13.58-10.07h3.1001l-5.2701-9.12l-5.27,9.12h3.28c0,0.24,0.0541,0.4652,0.13,0.71 c2.6723,8.6078,16.5632,15.1685,19.0988,16.3038c0.2569,0.1151,0.5388,0.1164,0.7966,0.0034 c2.5781-1.1294,16.8623-7.7541,19.5846-17.0172h3.08L54.215,34.1095z M36.535,17.4195c0.5501,0,1,0.45,1,1c0,0.55-0.4499,1-1,1 c-0.55,0-1-0.45-1-1C35.535,17.8695,35.985,17.4195,36.535,17.4195z"/>
  </g>
</svg>

<svg viewBox="0 0 72 72" xmlns="http://www.w3.org/2000/svg"><path fill="#b3b3b3" d="M68 4v64H4V4h64m4-4H0v72h72V0z"/><path fill="none" stroke="#00a5ff" stroke-miterlimit="10" stroke-width=".1" d="M12.923 10.958h46.154A1.923 1.923 0 0161 12.881v46.154a1.923 1.923 0 01-1.923 1.923H12.923A1.923 1.923 0 0111 59.035V12.881a1.923 1.923 0 011.923-1.923z"/><rect x="16" y="4" rx="2.254" width="40" height="64" fill="none" stroke="#00a5ff" stroke-miterlimit="10" stroke-width=".1"/><rect x="16" y="4" rx="2.254" width="40" height="64" transform="rotate(90 36 36)" fill="none" stroke="#00a5ff" stroke-miterlimit="10" stroke-width=".1"/><circle cx="36" cy="36" r="29" fill="none" stroke="#00a5ff" stroke-miterlimit="10" stroke-width=".1"/><path d="M54.215 34.11l-5.27 9.12h3.17a16.95 16.95 0 01-13.58 10.07V29.42h4a2 2 0 001.975-2.325c-.154-.987-1.077-1.676-2.077-1.676h-3.898v-2.41a5.025 5.025 0 002.923-5.48c-.342-1.968-1.895-3.59-3.85-3.998a5.007 5.007 0 00-6.073 4.888c0 2.05 1.24 3.81 3 4.59v2.41h-3.898c-1 0-1.923.689-2.077 1.676a2 2 0 001.975 2.324h4V53.3c-5.93-.71-11.17-4.56-13.58-10.07h3.1l-5.27-9.12-5.27 9.12h3.28c0 .24.054.466.13.71 2.672 8.608 16.563 15.169 19.099 16.304a.97.97 0 00.796.004c2.578-1.13 16.863-7.754 19.585-17.018h3.08l-5.27-9.12zm-17.68-16.69c.55 0 1 .45 1 1s-.45 1-1 1-1-.45-1-1 .45-1 1-1z" stroke-linecap="round" stroke-miterlimit="10" stroke-width="6" stroke="#fff" fill="none" stroke-linejoin="round"/><path fill="#d0cfce" d="M54.215 34.11l-5.27 9.12h3.17a16.95 16.95 0 01-13.58 10.07V29.42h4a2 2 0 001.975-2.325c-.154-.987-1.077-1.676-2.077-1.676h-3.898v-2.41a5.025 5.025 0 002.923-5.48c-.342-1.968-1.895-3.59-3.85-3.998a5.007 5.007 0 00-6.073 4.888c0 2.05 1.24 3.81 3 4.59v2.41h-3.898c-1 0-1.923.689-2.077 1.676a2 2 0 001.975 2.324h4V53.3c-5.93-.71-11.17-4.56-13.58-10.07h3.1l-5.27-9.12-5.27 9.12h3.28c0 .24.054.466.13.71 2.672 8.608 16.563 15.169 19.099 16.304a.97.97 0 00.796.004c2.578-1.13 16.863-7.754 19.585-17.018h3.08l-5.27-9.12zm-17.68-16.69c.55 0 1 .45 1 1s-.45 1-1 1-1-.45-1-1 .45-1 1-1z"/><path fill="none" stroke="#000" stroke-linecap="round" stroke-linejoin="round" stroke-miterlimit="10" stroke-width="2" d="M54.215 34.11l-5.27 9.12h3.17a16.95 16.95 0 01-13.58 10.07V29.42h4a2 2 0 001.975-2.325c-.154-.987-1.077-1.676-2.077-1.676h-3.898v-2.41a5.025 5.025 0 002.923-5.48c-.342-1.968-1.895-3.59-3.85-3.998a5.007 5.007 0 00-6.073 4.888c0 2.05 1.24 3.81 3 4.59v2.41h-3.898c-1 0-1.923.689-2.077 1.676a2 2 0 001.975 2.324h4V53.3c-5.93-.71-11.17-4.56-13.58-10.07h3.1l-5.27-9.12-5.27 9.12h3.28c0 .24.054.466.13.71 2.672 8.608 16.563 15.169 19.099 16.304a.97.97 0 00.796.004c2.578-1.13 16.863-7.754 19.585-17.018h3.08l-5.27-9.12zm-17.68-16.69c.55 0 1 .45 1 1s-.45 1-1 1-1-.45-1-1 .45-1 1-1z"/></svg>
